icons/default/WWW.svg

<rect width="64" height="64" rx="8" fill="#FAFAFB" />
<circle cx="32.0019" cy="32" r="23.7949" fill="black" />
<path
	d="M15.8798 36.436H16.9448L19.0298 30.241L21.0848 36.436H22.1498L24.7598 28.681H23.5598L21.6248 34.936L19.5098 28.681H18.5348L16.4198 34.936L14.4848 28.681H13.2848L15.8798 36.436ZM28.8749 36.436H29.9399L32.0249 30.241L34.0799 36.436H35.1449L37.7549 28.681H36.5549L34.6199 34.936L32.5049 28.681H31.5299L29.4149 34.936L27.4799 28.681H26.2799L28.8749 36.436ZM41.8701 36.436H42.9351L45.0201 30.241L47.0751 36.436H48.1401L50.7501 28.681H49.5501L47.6151 34.936L45.5001 28.681H44.5251L42.4101 34.936L40.4751 28.681H39.2751L41.8701 36.436Z"
	fill="white" />

<rect width="64" height="64" rx="8" fill="#FAFAFB"/><circle cx="32.002" cy="32" r="23.795"/><path d="M15.88 36.436h1.065l2.085-6.195 2.055 6.195h1.065l2.61-7.755h-1.2l-1.935 6.255-2.115-6.255h-.975l-2.115 6.255-1.935-6.255h-1.2l2.595 7.755Zm12.995 0h1.065l2.085-6.195 2.055 6.195h1.065l2.61-7.755h-1.2l-1.935 6.255-2.115-6.255h-.975l-2.115 6.255-1.935-6.255h-1.2l2.595 7.755Zm12.995 0h1.065l2.085-6.195 2.055 6.195h1.065l2.61-7.755h-1.2l-1.935 6.255-2.115-6.255h-.975l-2.115 6.255-1.935-6.255h-1.2l2.595 7.755Z" fill="#fff"/>
